-----BEGIN PGP PUBLIC KEY BLOCK-----

mQINBGqw4/gBEADACGXDLXG2aJuXm4IDM0ZNFNwO+mkTOiD0MjiKad9XbrYAM5jC
2ZTEfyvBKYjGBD+CiRcjx+AgWJRmMTLWpmMs91LiuKRge1gVURBKYEJio0+oHiib
PZPHXMF8kYyZ0yi5TXRAmBDbbR1eiJncvxH0AalUrIIHgv3mBz8+lzOI6bWuWtRs
Uep+blCE31HY9WGstLKddddcMRtYUady+hkOFCqB12kzXrqLhxAXiG632h8LCUON
49a/jRtRuW7sWrf9MUmMExeDbX8k5RpbVLZ2Wcjz+KheftSRcMiZojIul7h324Bg
Nsd8uiGvuVyZbqwRxknsKdM9hSnT7iuzKAxqFT9rkImamqDbYlTc4QehNoUylw3t
P2t1VnPkhPtF/E8EXoQk/I9LQ/RB/4T86CpZTqKGmKi61Ty4EUXODdfGkQAZucoc
Czn52F7kyMt2hvBvi+VnZ6peNlZHOXdjqMG6UGlpCYS71/ZR3gaPmchwURfVcyEd
DJ2FCPYtZL8yCbAdq6MhsRqWlrxkp05hh9eJ2UY5Q1yuf+hhUy5PJu734C0sEHqG
t3QwLFYG0cuYcU49WL6OK8qQpe8pTR0Q3fzsALNA8yADdMsTmBydNVXwYjAwUBDu
+0rF/bXgvRQmWJTzsFsq8DLyEWghP4zupSTb3k2zeiReEw/Tvsjev3ItewARAQAB
tDlPbmcgWW9uZyBYaW4gKFJTQSA0MDk2KSA8b25neW9uZ3hpbjIwMjArZ2l0aHVi
QGdtYWlsLmNvbT6JAk4EEwEKADgWIQRdMwDWvQGBvAJxA4SlvmoJE6SdDgUCarDj
+AIbAQULCQgHAgYVCgkICwIEFgIDAQIeAQIXgAAKCRClvmoJE6SdDqCtD/9QKqYQ
Dr7bMYkJ+Aty8uEclY/7F8vQadFmQqoCWjhb4UXauWiBz3gxodFCbuQSJB6fac+q
Bsx/aQpnsSlXlWO0EQJDlIMMgnOPE9mVPmdgFzZU5s+S8fqs1BJ+aiZ1ZFHjlIJB
nJcIUHjNTBKtuVs+uveY8M+CjdMkYPL1hz9YY/nN3doc0+QbxoxboBLkavvFpSmM
uJfNjj6aqqlipzQcT3vyo7ZpZOM/tFNntMO1HACFhjMjVcLKp/E3sHukODFp/3QS
Ntq3V0lTyn9ky9Ww9d3yK5T1yX5wHtDDqbe1XK+EswWsj7DZxINPemkQNo9mv3vr
p+5h9yFDCu3sZyEB01cW/6bMCPbiz4JhLUJdBDJXt2IDFpvh9PgX4wNMtjHo5Naf
CZiprgpSc6i3rPcDXUM5vefwzwSquW59J3ggUZPv7rBTXjKYRYTgP+ZDqkUCusqQ
ecirt5etu14f3CzvvMOoxDf6Y82PW6cTku04zo3mecUcucrw8aHdv7wJfPsl2/8T
kGECRafFxRlkRgF8VSkTWgE5hnik/Qy/XEvc2B6CURYgWM6FfItv/MblzjeM6XcG
ngRr8d2LwaGa3dCY8hejK8onDV/nn9HTeO1qB66eNEMcJqG68htQdJHxfbl7ew6h
wtdlpoon5Ahi9eRU+fYR2xoEFrr+WrRgVQ3csrkCDQRqsOQpARAAw4MAFMl07reD
3h9abbRuwzkrsKJ6YZVzBoXCio2iOctTcdBxQuE63L2Vlr4Bz2nJmx+9mVphtYFf
oFAhW64BZ1PWkGQ1v2sCKyhdMWsIfW6MAzRpM6X9Yn1zrlk/ywEU/oQgsfHYlCiB
5SCn76L3PB/nqPh2exW7JbaPenLbi8i4DkZSg9zquZPTM+C/PCHGLHtwg7EoEuhd
eHlYRmN2XzPsKA4q7h7KSv/oF0Fr29vsaOYkz5iRvtetOLi+0YfQOyN+DkSO5nJ2
lq6zx+8zfRXEnRvCK2zqRvNlNgHtSw8aGBdwhacR+Pz7PbLR1lbPamQL9/ddju7m
48KzJoOF4X68kGe8q5BFl52qYZkUq5tfWoG7ca6KbIKgDsJL1QgPX4cm0tUOZ99S
xOWs6u/IvDR+iwdkXGCjNb03LGpRdBr4ccWIx2Xgfk3RMNicKjHSqwuA8GHDo5S8
cN4bmzBPjHmeKOAZ5rI0ZOlkgqAb6ynFt6SDaz5ON5cuBmztUEFDsLkT7zyRyefD
vXu/Uzo/O4LwWwupPBWJDMpXEP8AJ7Txo3JtLSHplUgVEoD+8I1GRIKW1ToWoRkv
/YeggYrE9ZdylpeZ6Hl6SNNDzb1DHUh6SDPdHHsGLqkYKuAr2audtDl71W6B94Hp
baJrDQ0StFmvijOxXVWgJtvw54YmS40AEQEAAYkEbAQYAQoAIBYhBF0zANa9AYG8
AnEDhKW+agkTpJ0OBQJqsOQpAhsCAkAJEKW+agkTpJ0OwXQgBBkBCgAdFiEEc8xc
SQDM1okLuah/xG1HA9XV3Y4FAmqw5CkACgkQxG1HA9XV3Y6onQ/+PnJzUlprjm0A
wDo+zBi1UUN5xlNRDlKUy9Av/DbEOvwDKm2CD+mLy1MPyamJVeHI77Df7f6tga3t
a8Qe416cAFx/owezD1VMbK/4lxHVxIj3vEJWd3FlXk9E9C4Erc7mVt6vzKsZyRc5
ITJpFV0+2U2wWYP7bsFHhR63s/aaqPZs8fmE3YaetE+w2+I3BL9ooU1PJ14tofIi
/AWBWj2FUzkZOGnJx90adsu7GCQd3pQGDCK5romuDVV5uygeyEXKGSs1MPe8W3mP
9EOj9bqNAaDALUY12QWWd3wTIDe5JKd9ncIhpLq97TMhoP5F0gGhPj9F0LiOyA/6
/2u9vKo0hLz1V5wN2aGxFkUi30iYWOnz8Wnd2BRKI4XJTkP2u1KFpjOPb19V8HBe
2MUqf0Dd6CZoTXi+aagp2DcrVHd5vQ12moBqeJ8/DVAqtu9fcCmDxGtvS8EWQ1G4
jpNzBanIwjZH8nI4tLYNhJdUUbsgdkz5VfuoepCH7/hukOUeh15wqK+Q3ee8o1j1
ZKdcIZLfhfPs88BnjO4k6L8iqrFm/K5Vz2AG9VrE4QNVGH2OqKenNzSCLt8cAGvg
BjwH8TzvQ3CcNQxMgOEdBHQNN6ilD2YeMDO7YOstd68XlnoX1PQTypLPEsExKWOP
YmZGOtqJW5PWIqfseMx/jmj0Ir1x9b+UsQ/+OpnlJQ0NQZyfALjZSyfOUJeKOEcQ
8dsbDmnVguR5d1MyAf89hwIwMigVqgyKUdvA+kmQ5rJSJbDgDKKkic2CU4oXWlUx
k5CtCRceNAqiMLJ+YmQPgFPAuApw/Zut5xgnSBNi0CRut3AzeVf6ji0VWusNgZHG
xbwcDpb4i8JpHi2bQNLBRXEKfuuXTx0LkWjys/mwLcc3ajnG0o7PxZhMAWV7uysf
Zo7FtBfX0xB8lcAtRbKkr55hgiIsN1ye8yDmukHMvzyd0ndZG9xhxXH9K4+32UVO
/RL5uV0tkttLy2Xdh0Gy/udZ8WlqtiT0NkenxIZRwM2t4xyyhDLCdTo5OLB3BjxI
+hRiFX074VeAlcLm8duGwub6rCxX8u07xpfxPm01aidKRaccEobqExxYbj3611Bz
ikcigVyooOkxc22P06rNwTgUZYz8LV0kqsC4quT8nTrxYClsSvpr2//UGhtpUEmA
FJjUiezBrK/YtrNxlEptO4hTFoZ32wEYOXQa1+brFr0FAvq28CSo33MjTUHrN7ry
9ldkABBMgEPQ7IfJsbNDK7m3aplC1JmZRMn3uQJR5qgtxJmUDtuVLUbK6Z4scATo
GgC2t5VLciJUq5avGgx4mxVSseDcjt47t64jaFVMNhmVUJuIJwn3cM2pGyR6x969
a7Ie+zEMxc17TGM=
=+e4c
-----END PGP PUBLIC KEY BLOCK-----
